X:507
T:Brose and Butter
S:Johnny Cradden, Edinburgh
Z:Nigel Gatherer
M:9/8
L:1/8
K:D
def dBB dBB | def dBB c2A | def dBB dBB | def fae c2A :|
def aff aff | def aff g2e | def aff aff | def fae c2A :|]
